X:2
T:Banks of Lough Gowna
M:6/8
L:1/8
R:Jig
K:D
|: B3 BAF | FEF DFA | B3 BAF | d2e fed |
B3 BAF | FEF DFA | def geg | fdB B2A :|
|: def a3 | afb afe | def afe | fdB BAB |
def a3 | afb afe | def geg | fdB B3 :|

